X:1
T:Suyapa, 76.76 D
T:Suyapa, 76.76 D
T:William Crane Carl (1865-1936)
T:Public Domain Courtesy of the Cyber Hymnal™
C:William Crane Carl (1865-1936)
Z:Public Domain
Z:Courtesy of the Cyber Hymnal™
%%score ( 1 2 ) ( 3 4 )
L:1/8
Q:1/4=110
M:4/4
K:C
V:1 treble 
V:2 treble 
V:3 bass 
V:4 bass 
V:1
 B2 | E3 G c2 [Fd]2 | [Ec]4 [EG]2 G2 | [FA]2 G2 [FA]2 (Bc) | [Dd]6 [FG]2 | %5
 [Ec]3 [CE] [CE]2 [D^F]2 | [DG]4 [DA]2 [Ec]2 | [GB]2 [GA]2 B3 z A | G6 [EG]2 | %9
 [FA]3 [Gc] [FB]2 [EA]2 | [FA]4 [FG]2 [FG]2 | [Ec]3 E [CF]2 [CA]2 | [CG]6 [EG]2 | %13
 [FA]2 [GB]2 [Gc]2 [CE]2 | (F2 G2) [CA]2 [Fd]2 | [Af]2 [Fd]2 [Ec]3 [DB] | [Ec]6 |] %17
V:2
 B2 | E3 G c2 x2 | x6 G2 | x2 G2 E2 x2 | x8 | x8 | x8 | x4 ^F2 F2 x | G6 x2 | x8 | x8 | x3 E x4 | %12
 x8 | x8 | C4 x4 | x8 | x6 |] %17
V:3
 G,2 | E,3 G, C2 [G,B,]2 | C4 [C,C]2 [E,C]2 | [F,C]2 [E,C]2 [D,F,]2 [C,G,]2 | [B,,G,]6 G,2 | %5
 [C,G,]3 [C,G,] [C,G,]2 [C,A,]2 | [B,,G,]4 [D,^F,]2 [A,,A,]2 | [B,,D]2 [C,E]2 [D,D]2 [D,C]2 x | %8
 [G,,B,]6 [C,C]2 | [F,C]3 [E,C] [D,G,]2 [C,A,]2 | [B,,D]4 [B,,D]2 [D,B,]2 | %11
 [C,C]3 [_B,,G,] [A,,F,]2 [F,,F,]2 | [C,E,]6 [C,C]2 | [F,C]2 [F,D]2 [E,C]2 [G,_B,]2 | %14
 ([F,A,]2 [E,G,]2) F,2 A,2 | [D,A,]2 [F,A,]2 G,3 [G,,G,] | [C,G,]6 |] %17
V:4
 G,2 | E,3 G, C2 x2 | C4 x4 | x8 | x6 G,2 | x8 | x8 | x9 | x8 | x8 | x8 | x8 | x8 | x8 | %14
 x4 F,2 (F,E,) | x4 G,3 x | x6 |] %17

